!!!COM: Charles Gounod
!!!CNT: Francais
!!!TXO: Francais
!!!OTL: Venise
!!!LYR: Alfred de Musset
!!!ENC: Jacob Pegg
!!!YOR: Romantic French Song 1830-1870 -David Tunley, ed.,
!!!YOR: New York: Garland Publishing, Inc., 1995, Vol. 5
!!!ODT: 1842
!!NB: Vocal melody and text only encoded.
!!NB: First instance of melodic material only encoded.
**kern	**silbe
*clef G2	*
*k[b-e-]	*
*M6/8	*
*MM[allegro]	*
!!created: 6/17/03 15:51
!!proofed and posted: 7/21/03 23:33
=7	=7
4r	.
8r	.
{4b-	{Dans
8b-	Ve-
=8	=8
(8b-	-ni-
8a)	|
8g	|
4dd	-se
8dd	la
=9	=9
4.ee-	rou-
8ee-}	-ge,}
8r	.
{8b-	{Pas
=10	=10
4b-	un
8b-	ba-
4b-	-teau
8ee-	qui
=11	=11
4.dd	bou-
8dd}	-ge,}
8r	.
{8dd	{Pas
=12	=12
4dd	un
8dd	pe^-
(8een	-cheur
8dd)	|
8cc	dans
=13	=13
4.ff}	l'eau,}
{8f	{Pas
8f	un
8f	fal-
=14	=14
[2.f	-lot!
=15	=15
8f]}	|}
8r	.
8r	.
4r	.
8r	.
=16	=16
2.r	.
=17	=17
4r	.
8r	.
{4.b-	{La
=18	=18
4g	lu-
8g	-ne
4dd	qui
8b-	s'ef-
=19	=19
4g	-fa-
8g}	-ce}
{4.b-	{Cou-
=20	=20
4g	-vre
8g	son
4dd	front
8b-	qui
=21	=21
4g	pas-
8a}	-se}
{4b-	{D'un
8cc	nu-
=22	=22
4.cc#	-age
4cc#	e/-
8cc#	-toi-
=23	=23
4.dd}	-le/}
{4dd	{D'un
8dd	nu-
=24	=24
4.dd	-age
4dd	e/-
8dd	-toi-
=25	=25
4.ff#	-le/
(8ff#	De-
16ggq	|
16ff#q	|
8een	|
8ff#)	|
=26	=26
[4.gg	-mi
4gg]	|
8cc#	voi-
=27	=27
[2.dd	-le!
=28	=28
2.dd_	|
=29	=29
4dd]}	|}
8r	.
4r	.
8r	.
=30	=30
2.r	.
=31	=31
{[4.dd	{Tout
4dd]	|
8ee-	se
=32	=32
4dd	fait,
8r	.
4dd	fors
8ee-	les
=33	=33
[4.dd	gar
(4dd]	|
8ee-)	|
=34	=34
4dd}	-des}
8r	.
{4.dd	{Aux
=35	=35
4dd	lon-
8ee-	-gues
4ff	hal-
8gg	-bar-
=36	=36
(4ff	|
8een)	|
4cc}	-des}
{8dd	{Qui
=37	=37
4ee-	veil-
8ee-	-lent
4ee-	aux
8ee-	cre/-
=38	=38
[2.ee-	-naux
=39	=39
4ee-]}	|}
8r	.
{[4.cc	{Des
=40	=40
4.cc]	|
4cc	ar-
8cc	-se-
=41	=41
[2.bn	-neaux
=42	=42
2.bn_	|
=43	=43
4.bn_	|
8bn]}	|}
8r	.
8r	.
*-	*-
